!!!!SEGMENT: pl-kk--kk-i-306_anonim--verbum-caro-factum-est.krn
!!!cenid: 17xx:2106
!!!COM: Anonim
!!!COM-rism: pe30004985
!!!CDT:
!!!CNT:
!!!OTL: Verbum caro factum est
!!!PDT:
!!!AGN: Sacred
!!!SMS-siglum: PL-Kk
!!!SMS-shelfmark: Kk.I.306
!!!NIFC-rismID: 1001147330
!!!URL-scan: http://repozytorium.nifc.pl/skany/pl-kk-nut--i-306
!!!ONB-nifc: UWAGA: na odwrotach stron pozostałości innych utworów
!!!SMS-variant:
!!!SMS-altvar:
**kern	**text	**kern	**text	**kern	**text	**kern	**text	**kern	**text
*part5	*part5	*part4	*part4	*part3	*part3	*part2	*part2	*part1	*part1
*staff5	*staff5	*staff4	*staff4	*staff3	*staff3	*staff2	*staff2	*staff1	*staff1
*	*	*group1	*	*group1	*	*group1	*	*group1	*
*>[A,B,C,B]	*	*>[A,B,C,B]	*	*>[A,B,C,B]	*	*>[A,B,C,B]	*	*>[A,B,C,B]	*
*>A	*	*>A	*	*>A	*	*>A	*	*>A	*
*I"Baſso Ripieno.	*	*I"Baſso.	*	*I"Tenore	*	*I"Alto.	*	*I"Canto.	*
*I'B rip	*	*I'B	*	*I'T	*	*I'A	*	*I'S	*
*clefF4	*	*clefF4	*	*clefC4	*	*clefC3	*	*clefC1	*
*k[]	*	*k[]	*	*k[]	*	*k[]	*	*k[]	*
*M2/1	*	*M2/1	*	*M2/1	*	*M2/1	*	*M2/1	*
*met(C|)	*	*met(C|)	*	*met(C|)	*	*met(C|)	*	*met(C|)	*
=1-	=1-	=1-	=1-	=1-	=1-	=1-	=1-	=1-	=1-
!	!	!	!	!	!	!LO:TX:t=P:problem:kreska pseudotaktowa	!	!LO:TX:t=P:problem:kreska pseudotaktowa	!
00r	.	00r	.	(>1D	Ver-	1rg	.	00r	.
!	!	!	!	!LO:TX:t=P:problem:kreska pseudotaktowa	!	!	!	!	!
.	.	.	.	1G)	.	1G	Ver-	.	.
=2-	=2-	=2-	=2-	=2-	=2-	=2-	=2-	=2-	=2-
*	*	*	*	*lig	*	*	*	*	*
!	!	!	!	!	!	!LO:TX:t=P:problem:kreska pseudotaktowa	!	!	!
.	.	.	.	1E	-bum	1c	.	.	.
.	.	.	.	1F	.	1A	.	.	.
*	*	*	*	*Xlig	*	*	*	*	*
=3-	=3-	=3-	=3-	=3-	=3-	=3-	=3-	=3-	=3-
!LO:TX:t=P:problem:kreska pseudotaktowa	!	!LO:TX:t=P:problem:kreska pseudotaktowa	!	!LO:TX:t=P:problem:kreska pseudotaktowa	!	!LO:TX:t=P:problem:kreska pseudotaktowa	!	!	!
1r	.	1r	.	0G	.	0B,<	-bum	1d	Ver-
1GG	Ver-	(>1GG	Ver-	.	.	.	.	1g	.
=4-	=4-	=4-	=4-	=4-	=4-	=4-	=4-	=4-	=4-
!	!	!	!	!LO:TX:t=P:problem:kreska pseudotaktowa	!	!	!	!	!
!	!	!LO:TX:t=P:problem:kreska pseudotaktowa	!	!LO:TX:a:t=1.	!	!	!	!LO:TX:t=P:problem:kreska pseudotaktowa	!
1C	.	1C)	.	1r	.	0c	Ca-	1e,<	-bum
!LO:TX:t=P:problem:kreska pseudotaktowa	!	!LO:TX:t=P:problem:kreska pseudotaktowa	!	!	!	!	!	!	!
1AA,<	-bum	1AA,<	-bum	1A	Ca-	.	.	2re	.
.	.	.	.	.	.	.	.	2e/	Ca-
=5-	=5-	=5-	=5-	=5-	=5-	=5-	=5-	=5-	=5-
*	*ij	*	*ij	*	*	*	*	*lig	*
!	!	!	!	!LO:TX:t=P:problem:kreska pseudotaktowa	!	!LO:TX:t=P:problem:kreska pseudotaktowa	!	!	!
1D	Ver-	1D	Ver-	1A	-ro	1d,<	-ro	1fn	.
!LO:TX:t=P:problem:kreska pseudotaktowa	!	!LO:TX:t=P:problem:kreska pseudotaktowa	!	!	!	!	!	!	!
*	*	*	*	*2\right	*	*2\right	*	*	*
0C	-bum	0C,<	-bum	2c\	Fa-	2e\	Fa-	1g	.
*	*Xij	*	*Xij	*	*	*	*	*Xlig	*
.	.	.	.	4B\	.	4d\	.	.	.
!	!	!	!	!LO:TX:t=P:problem:kreska pseudotaktowa	!	!LO:TX:t=P:problem:kreska pseudotaktowa	!	!	!
.	.	.	.	4A\	.	4c\	.	.	.
=6-	=6-	=6-	=6-	=6-	=6-	=6-	=6-	=6-	=6-
!	!	!	!	!	!	!LO:TX:t=P:problem:kreska pseudotaktowa	!	!LO:TX:t=P:problem:kreska pseudotaktowa	!
.	.	.	.	2G/	.	1e	.	1g,<	-ro
.	.	.	.	1c	.	.	.	.	.
*lig	*	*lig	*	*	*	*	*	*2\right	*
1G	Ca-	1G	Ca-	.	.	2d\	.	2g\	Fa-
!	!	!	!	!LO:TX:t=P:problem:kreska pseudotaktowa	!	!LO:TX:t=P:problem:kreska pseudotaktowa	!	!LO:TX:t=P:problem:kreska pseudotaktowa	!
.	.	.	.	2B\	.	2g\	.	2dd\	.
=7-	=7-	=7-	=7-	=7-	=7-	=7-	=7-	=7-	=7-
1A	.	1A	.	1c	.	2e\	.	2a\	.
*	*	*Xlig	*	*	*	*	*	*	*
.	.	.	.	.	.	2f\	.	1cc	.
!	!	!	!	!	!	!LO:TX:t=P:problem:kreska pseudotaktowa	!	!	!
!	!	!LO:TX:t=P:problem:kreska pseudotaktowa	!	!LO:TX:t=P:problem:kreska pseudotaktowa	!	!	!	!	!
1G	.	1G,<	-ro	1d,<	-ctum	1g	.	.	.
*Xlig	*	*	*	*	*	*	*	*	*
!	!	!	!	!	!	!	!	!LO:TX:t=P:problem:kreska pseudotaktowa	!
.	.	.	.	.	.	.	.	2b\	.
=8-	=8-	=8-	=8-	=8-	=8-	=8-	=8-	=8-	=8-
2C,</	-ro	2C/	Fa-	2c\	est	2e,<\	-ctum	2cc\	.
*2\right	*	*	*	*	*	*	*	*	*
!LO:TX:t=P:problem:kreska pseudotaktowa	!	!	!	!	!	!	!	!	!
*	*	*2\right	*	*	*	*	*	*	*
!	!	!LO:TX:t=P:problem:kreska pseudotaktowa	!	!LO:TX:t=P:problem:kreska pseudotaktowa	!	!LO:TX:t=P:problem:kreska pseudotaktowa	!	!	!
2G\	Fa-	2G\	.	2r	.	2g\	Ca-	4b\	.
!	!	!	!	!	!	!	!	!LO:TX:t=P:problem:kreska pseudotaktowa	!
.	.	.	.	.	.	.	.	4a\	.
!	!	!	!	!LO:LB:g=original	!	!	!	!	!
2C/	.	2C/	.	2rF	.	(2e\	-ro	2g\	.
!LO:TX:t=P:problem:kreska pseudotaktowa	!	!LO:TX:t=P:problem:kreska pseudotaktowa	!	!LO:TX:t=P:problem:kreska pseudotaktowa	!	!LO:TX:t=P:problem:kreska pseudotaktowa	!	!LO:TX:t=P:problem:kreska pseudotaktowa	!
2D\	.	2D\	.	2Fn/	Ca-	2f,<\)	.	2dd\	.
=9-	=9-	=9-	=9-	=9-	=9-	=9-	=9-	=9-	=9-
2E\	.	2E\	.	2G/	.	2e\	Fa-	2g/	.
!LO:TX:t=P:problem:kreska pseudotaktowa	!	!	!	!	!	!LO:TX:t=P:problem:kreska pseudotaktowa	!	!	!
2F\	.	2F,<\	-ctum	2A\	-ro	2d\	.	1fn	.
!	!	!LO:TX:t=P:problem:kreska pseudotaktowa	!	!LO:TX:t=P:problem:kreska pseudotaktowa	!	!LO:LB:g=original	!	!	!
1C	.	1C,<	est	1G,<	Fa-	2.c/	.	.	.
.	.	.	.	.	.	.	.	2e,</	-ctum
!	!	!	!	!	!	!LO:TX:t=P:problem:kreska pseudotaktowa	!	!	!
.	.	.	.	.	.	4B/	-ctum	.	.
!	!	!LO:LB:g=original	!	!	!	!	!	!	!
=10-	=10-	=10-	=10-	=10-	=10-	=10-	=10-	=10-	=10-
!	!	!	!	!	!	!LO:TX:t=P:problem:kreska pseudotaktowa	!	!LO:TX:t=P:problem:kreska pseudotaktowa	!
2.D\	.	2.D\	Ca-	1F	.	1A,<	est,	1f,<	est,
!LO:TX:t=P:problem:kreska pseudotaktowa	!	!LO:TX:t=P:problem:kreska pseudotaktowa	!	!	!	!	!	!	!
4E\	.	4E\	.	.	.	.	.	.	.
!	!	!	!	!	!	!	!	!LO:TX:t=P:problem:kreska pseudotaktowa	!
2F\	.	2F\	.	2A/	.	2r	.	0r	.
!	!	!LO:TX:t=P:problem:kreska pseudotaktowa	!	!LO:TX:t=P:problem:kreska pseudotaktowa	!	!	!	!	!
2G\	.	2G\	.	2G/	-ctum	1d\	et	.	.
=11-	=11-	=11-	=11-	=11-	=11-	=11-	=11-	=11-	=11-
!LO:TX:t=P:problem:kreska pseudotaktowa	!	!LO:TX:t=P:problem:kreska pseudotaktowa	!	!LO:TX:t=P:problem:kreska pseudotaktowa	!	!	!	!	!
1E	.	1E	.	1G,<	eſt	.	.	.	.
.	.	.	.	.	.	2c\	.	.	.
!	!	!	!	!	!	!LO:TX:t=P:problem:kreska pseudotaktowa	!	!LO:LB:g=original	!
1.D	-ctum	2D,<\	-ro	0A	et	0d	.	(1a	et
!	!	!LO:TX:t=P:problem:kreska pseudotaktowa	!	!	!	!	!	!	!
.	.	[<2D\	Fa-	.	.	.	.	.	.
=12-	=12-	=12-	=12-	=12-	=12-	=12-	=12-	=12-	=12-
*	*	*2\left	*	*	*	*	*	*	*
!	!	!	!	!	!	!	!	!LO:TX:t=P:problem:kreska pseudotaktowa	!
.	.	2D]	.	.	.	.	.	1fn)	.
!	!	!LO:TX:t=P:problem:kreska pseudotaktowa	!	!	!	!	!	!	!
2D\	.	2D\	-ctum	.	.	.	.	.	.
*	*	*2\right	*	*	*	*	*	*	*
!LO:TX:t=P:problem:kreska pseudotaktowa	!	!LO:TX:t=P:problem:kreska pseudotaktowa	!	!	!	!	!	!	!
1E,<	eſt	1E,<	est	2c\	ha-	2r	.	1g,<	.
!	!	!	!	!LO:TX:t=P:problem:kreska pseudotaktowa	!	!LO:TX:t=P:problem:kreska pseudotaktowa	!	!	!
.	.	.	.	2B\	-bi-	2g\	ha-	.	.
=13-	=13-	=13-	=13-	=13-	=13-	=13-	=13-	=13-	=13-
2r	.	2r	.	2c\	-ta-	2e\	-bi-	1a	ha-
!LO:TX:t=P:problem:kreska pseudotaktowa	!	!LO:TX:t=P:problem:kreska pseudotaktowa	!	!LO:TX:t=P:problem:kreska pseudotaktowa	!	!LO:TX:t=P:problem:kreska pseudotaktowa	!	!	!
2D\	et	2D\	et	2d\	.	2f\	-ta-	.	.
!LO:LB:g=original	!	!	!	!	!	!	!	!LO:TX:t=P:problem:kreska pseudotaktowa	!
2G\	ha-	2G\	ha-	2B\	.	2d,<\	-vit	1g	-bi-
!LO:TX:t=P:problem:kreska pseudotaktowa	!	!	!	!LO:TX:t=P:problem:kreska pseudotaktowa	!	!	!	!	!
2C/	-bi-	2C/	-bi-	2c\	.	2e\	in	.	.
=14-	=14-	=14-	=14-	=14-	=14-	=14-	=14-	=14-	=14-
!	!	!LO:TX:t=P:problem:kreska pseudotaktowa	!	!	!	!LO:TX:t=P:problem:kreska pseudotaktowa	!	!	!
1F	-ta-	1F	-ta-	2A\	.	[<0fn	No-	1a	-ta-
!	!	!	!	!LO:TX:t=P:problem:kreska pseudotaktowa	!	!	!	!	!
.	.	.	.	2c\	.	.	.	.	.
!	!	!	!	!	!	!	!	!LO:TX:t=P:problem:kreska pseudotaktowa	!
2D,<\	-vit	2D,<\	-vit	2d\	.	.	.	1a,<	-vit
!	!	!	!	!LO:SIC:v:t=custos A	!	!	!	!	!
!	!	!	!	!LO:TX:t=P:problem:kreska pseudotaktowa	!	!	!	!	!
1F\	in	1F\	in	2c\	.	.	.	.	.
!	!	!	!	!LO:LB:g=original	!	!	!	!	!
=15-	=15-	=15-	=15-	=15-	=15-	=15-	=15-	=15-	=15-
.	.	.	.	2A,<\	-vit	2f\]	.	1cc	in
!LO:TX:t=P:problem:kreska pseudotaktowa	!	!LO:TX:t=P:problem:kreska pseudotaktowa	!	!LO:TX:t=P:problem:kreska pseudotaktowa	!	!	!	!	!
2C/	.	2C/	.	2e\	in	1g	.	.	.
!	!	!	!	!	!	!	!	!LO:TX:t=P:problem:kreska pseudotaktowa	!
1D	No-	1D	No-	1d	No-	.	.	1a	.
!	!	!	!	!	!	!LO:TX:t=P:problem:kreska pseudotaktowa	!	!	!
.	.	.	.	.	.	2f#X\	.	.	.
=16-	=16-	=16-	=16-	=16-	=16-	=16-	=16-	=16-	=16-
!LO:TX:t=P:problem:kreska pseudotaktowa	!	!LO:TX:t=P:problem:kreska pseudotaktowa	!	!LO:TX:t=P:problem:kreska pseudotaktowa	!	!	!	!	!
1G	.	1G	.	1d,<	-bis	1g	.	1b	No-
!	!	!	!	!	!	!LO:TX:t=P:problem:kreska pseudotaktowa	!	!	!
2A\	.	2A\	.	1c	ha-	1e,<	-bis	2cc\	.
4G\	.	4G\	.	.	.	.	.	4b\	.
!LO:TX:t=P:problem:kreska pseudotaktowa	!	!LO:TX:t=P:problem:kreska pseudotaktowa	!	!	!	!	!	!LO:TX:t=P:problem:kreska pseudotaktowa	!
4F\	.	4F\	.	.	.	.	.	4a\	.
!	!	!LO:LB:g=original	!	!	!	!	!	!	!
=17-	=17-	=17-	=17-	=17-	=17-	=17-	=17-	=17-	=17-
2E\	.	2E\	.	2G/	-bi-	2re	.	2g\	.
1F	.	1F	.	2.c\	-ta-	1fny	in	1a	.
.	.	.	.	4B\	.	.	.	.	.
!LO:TX:t=P:problem:kreska pseudotaktowa	!	!LO:TX:t=P:problem:kreska pseudotaktowa	!	!	!	!LO:TX:t=P:problem:kreska pseudotaktowa	!	!	!
2G\	.	2G\	.	4A/	.	2e\	No-	1g\	.
!	!	!	!	!LO:TX:t=P:problem:kreska pseudotaktowa	!	!	!	!	!
.	.	.	.	4G/	.	.	.	.	.
=18-	=18-	=18-	=18-	=18-	=18-	=18-	=18-	=18-	=18-
!	!	!LO:TX:t=P:problem:kreska pseudotaktowa	!	!LO:TX:t=P:problem:kreska pseudotaktowa	!	!	!	!	!
1D	.	1D	.	1A	.	1d	.	.	.
.	.	.	.	.	.	.	.	2f#X/	.
!	!	!	!	!	!	!LO:TX:t=P:problem:kreska pseudotaktowa	!	!LO:TX:t=P:problem:kreska pseudotaktowa	!
2E\	.	2E\	.	2.G,</	-vit	[<1c	.	0g	-bis
1G\	.	1G\	.	.	.	.	.	.	.
!	!	!	!	!LO:TX:t=P:problem:kreska pseudotaktowa	!	!	!	!	!
.	.	.	.	4A/	in	.	.	.	.
=19-	=19-	=19-	=19-	=19-	=19-	=19-	=19-	=19-	=19-
!	!	!	!	!	!	!LO:SIC:v:t=custos A	!	!	!
!	!	!	!	!	!	!LO:TX:t=P:problem:kreska pseudotaktowa	!	!	!
.	.	.	.	4B\	No-	1c]	.	.	.
.	.	.	.	4c\	.	.	.	.	.
4F\	.	4F\	.	1d	.	.	.	.	.
!LO:TX:t=P:problem:kreska pseudotaktowa	!	!LO:TX:t=P:problem:kreska pseudotaktowa	!	!	!	!	!	!	!
4E\	.	4E\	.	.	.	.	.	.	.
*lig	*	*	*	*	*	*	*	*	*
!	!	!	!	!	!	!LO:LB:g=original	!	!LO:TX:t=P:problem:kreska pseudotaktowa	!
1F	.	1F	.	.	.	1A	.	1r	.
.	.	.	.	1c\	.	.	.	.	.
=20-	=20-	=20-	=20-	=20-	=20-	=20-	=20-	=20-	=20-
!	!	!LO:TX:t=P:problem:kreska pseudotaktowa	!	!	!	!LO:TX:t=P:problem:kreska pseudotaktowa	!	!	!
1G	.	1G	.	.	.	1d	.	1g	et
*Xlig	*	*	*	*	*	*	*	*	*
!	!	!	!	!LO:TX:t=P:problem:kreska pseudotaktowa	!	!	!	!	!
.	.	.	.	2B\	.	.	.	.	.
2C,</	-bis.	2C,</	-bis.	2e\	.	2c,<\	-bis,	1ccn	vi-
!	!	!	!	!LO:TX:t=P:problem:kreska pseudotaktowa	!	!LO:TX:t=P:problem:kreska pseudotaktowa	!	!	!
1c\	Et	1c\	Et	2c\	.	2e\	et	.	.
=21-	=21-	=21-	=21-	=21-	=21-	=21-	=21-	=21-	=21-
*	*	*	*	*	*	*	*	*lig	*
.	.	.	.	2A/	.	(2f#X\	.	1dd	.
!LO:TX:t=P:problem:kreska pseudotaktowa	!	!LO:TX:t=P:problem:kreska pseudotaktowa	!	!LO:TX:t=P:problem:kreska pseudotaktowa	!	!LO:TX:t=P:problem:kreska pseudotaktowa	!	!	!
2B\	.	2B\	.	2G,</	-bis	2g\)	.	.	.
!	!	!	!	!LO:LB:g=original	!	!	!	!	!
2c\	vi-	2c\	vi-	2r	.	1.g	vi-	1ee	.
*	*	*	*	*	*	*	*	*Xlig	*
2c\	-dim-	2c\	-dim-	1c\	et	.	.	.	.
=22-	=22-	=22-	=22-	=22-	=22-	=22-	=22-	=22-	=22-
!LO:TX:t=P:problem:kreska pseudotaktowa	!	!LO:TX:t=P:problem:kreska pseudotaktowa	!	!	!	!	!	!	!
1G,<	-(us)	1G,<	-(us)	.	.	.	.	2.dd\	.
!	!	!	!	!LO:TX:t=P:problem:kreska pseudotaktowa	!	!LO:TX:t=P:problem:kreska pseudotaktowa	!	!	!
.	.	.	.	2B\	.	2g\	-di-	.	.
!	!	!	!	!	!	!	!	!LO:TX:t=P:problem:kreska pseudotaktowa	!
.	.	.	.	.	.	.	.	4dd\	-di-
!	!	!	!	!	!	!LO:TX:t=P:problem:kreska pseudotaktowa	!	!LO:LB:g=original	!
1A	glo-	1A	Glo-	2c\	vi-	1e,<	-m(us)	2cc,<\	-mus
!	!	!	!	!	!	!	!	!LO:TX:t=P:problem:kreska pseudotaktowa	!
.	.	.	.	2e\	-di-	.	.	2cc\	et
=23-	=23-	=23-	=23-	=23-	=23-	=23-	=23-	=23-	=23-
2F\	.	2F\	.	2A,<\	-m(us)	2a\	Glo-	2a\	vi-
!	!	!	!	!LO:TX:t=P:problem:kreska pseudotaktowa	!	!	!	!	!
1G	.	1G	.	[<2d\	glo-	1g	-ri-	1b	.
!	!	!	!	!LO:N:xstem:cue	!	!	!	!	!
.	.	.	.	4d]	.	.	.	.	.
.	.	.	.	4c\	.	.	.	.	.
2A\	-ri-	2A\	-ri-	(4B\	-ri-	2fny|\	.	1a\	.
.	.	.	.	4A\)	.	.	.	.	.
!LO:LB:g=original	!	!	!	!	!	!	!	!	!
=24-	=24-	=24-	=24-	=24-	=24-	=24-	=24-	=24-	=24-
!LO:TX:t=P:problem:kreska pseudotaktowa	!	!LO:TX:t=P:problem:kreska pseudotaktowa	!	!LO:TX:t=P:problem:kreska pseudotaktowa	!	!LO:TX:t=P:problem:kreska pseudotaktowa	!	!	!
1E,<	-am	1E,<	-am	1B,<	-am	1e,<	-am	.	.
!	!	!	!	!	!	!	!	!LO:TX:t=P:problem:kreska pseudotaktowa	!
.	.	.	.	.	.	.	.	2gn\	-di-
!	!	!LO:LB:g=original	!	!	!	!	!	!LO:TX:t=P:problem:kreska pseudotaktowa	!
1F	E-	1F	E-	2.A\	E-	(2c\	E-	1a	-m(us)
!	!	!	!	!	!	!LO:TX:t=P:problem:kreska pseudotaktowa	!	!	!
.	.	.	.	.	.	2d\)	.	.	.
!	!	!	!	!LO:TX:t=P:problem:kreska pseudotaktowa	!	!	!	!	!
.	.	.	.	4B\	.	.	.	.	.
=25-	=25-	=25-	=25-	=25-	=25-	=25-	=25-	=25-	=25-
!	!	!	!	!	!	!	!	!LO:TX:t=P:problem:kreska pseudotaktowa	!
2E\	.	2E\	.	2c\	.	2e\	.	1r	.
!LO:TX:t=P:problem:kreska pseudotaktowa	!	!LO:TX:t=P:problem:kreska pseudotaktowa	!	!	!	!LO:TX:t=P:problem:kreska pseudotaktowa	!	!	!
2D\	.	2D\	.	1d	.	2f\	.	.	.
!	!	!	!	!	!	!LO:TX:t=P:problem:kreska pseudotaktowa	!	!	!
1E	.	1E	.	.	.	1e,<	-jus	(1g	glo-
.	.	.	.	2c\	.	.	.	.	.
=26-	=26-	=26-	=26-	=26-	=26-	=26-	=26-	=26-	=26-
!LO:TX:t=P:problem:kreska pseudotaktowa	!	!LO:TX:t=P:problem:kreska pseudotaktowa	!	!LO:TX:t=P:problem:kreska pseudotaktowa	!	!	!	!	!
1D,<	-jus	1D,<	-jus	1d,<	-jus	2f\	glo-	2.a\)	.
.	.	.	.	.	.	1d	.	.	.
.	.	.	.	.	.	.	.	4a\	-ri-
*lig	*	*	*	*	*	*	*	*	*
!	!	!	!	!LO:TX:t=P:problem:kreska pseudotaktowa	!	!	!	!LO:TX:t=P:problem:kreska pseudotaktowa	!
1E	glo-	1E	glo-	1re	.	.	.	1g,<	-am
.	.	.	.	.	.	2c\	-ri-	.	.
=27-	=27-	=27-	=27-	=27-	=27-	=27-	=27-	=27-	=27-
!	!	!	!	!	!	!LO:TX:t=P:problem:kreska pseudotaktowa	!	!	!
1D	.	1D	.	1A	glo-	0d	-am	1f#X	e-
*Xlig	*	*	*	*	*	*	*	*	*
!	!	!LO:SIC:v:s=1GG	!	!	!	!	!	!	!
!LO:TX:t=P:problem:kreska pseudotaktowa	!	!LO:TX:t=P:problem:kreska pseudotaktowa	!	!LO:TX:t=P:problem:kreska pseudotaktowa	!	!	!	!LO:TX:t=P:problem:kreska pseudotaktowa	!
1GG	.	1AA	.	1B	.	.	.	1g,<	-jus
!	!	!	!	!LO:LB:g=original	!	!	!	!	!
=28-	=28-	=28-	=28-	=28-	=28-	=28-	=28-	=28-	=28-
!	!	!	!	!	!	!LO:TX:t=P:problem:kreska pseudotaktowa	!	!	!
!	!	!	!	!	!	!LO:LB:g=original	!	!	!
2C/	.	2C/	.	2c\	.	0r	.	2e/	glo-
!	!	!	!	!LO:TX:t=P:problem:kreska pseudotaktowa	!	!	!	!	!
2.D/	.	2.D/	.	2A\	-ri-	.	.	2.fny/	.
.	.	.	.	2A,<\	-am	.	.	.	.
4C/	.	4C/	.	.	.	.	.	4e/	.
!	!	!LO:TX:t=P:problem:kreska pseudotaktowa	!	!LO:TX:t=P:problem:kreska pseudotaktowa	!	!	!	!LO:TX:t=P:problem:kreska pseudotaktowa	!
2BB/	-ri-	2BB/	-ri-	[<2d\	E-	.	.	2d/	ri-
=29-	=29-	=29-	=29-	=29-	=29-	=29-	=29-	=29-	=29-
!LO:TX:t=P:problem:kreska pseudotaktowa	!	!LO:TX:t=P:problem:kreska pseudotaktowa	!	!	!	!	!	!LO:TX:t=P:problem:kreska pseudotaktowa	!
1AA,<	-am	1AA,<	-am	2d]	.	(1A	qua-	1e,<	-am
.	.	.	.	2c#X\	.	.	.	.	.
!	!	!	!	!LO:TX:t=P:problem:kreska pseudotaktowa	!	!	!	!	!
2r	.	2r	.	1d,<	-jus	2.B/)	.	2.d/	qua-
1D\	qua-	1D\	qua-	.	.	.	.	.	.
!	!	!	!	!	!	!LO:TX:t=P:problem:kreska pseudotaktowa	!	!LO:TX:t=P:problem:kreska pseudotaktowa	!
.	.	.	.	.	.	4c,</	-si	4e/	.
=30-	=30-	=30-	=30-	=30-	=30-	=30-	=30-	=30-	=30-
.	.	.	.	2B\	glo-	2d\	U-	4f/	.
.	.	.	.	.	.	.	.	4g/	.
*	*	*2\left	*	*	*	*	*	*	*
!LO:TX:t=P:problem:kreska pseudotaktowa	!	!LO:TX:t=P:problem:kreska pseudotaktowa	!	!LO:TX:t=P:problem:kreska pseudotaktowa	!	!	!	!	!
[<2F\	.	[<2F\	.	[<2cny\	.	4A/	-ni-	1a	.
!	!	!	!	!	!	!LO:TX:t=P:problem:kreska pseudotaktowa	!	!	!
.	.	.	.	.	.	4B/	.	.	.
*	*	*2\right	*	*	*	*	*	*	*
!	!	!	!	!LO:N:xstem:cue	!	!	!	!	!
2F]	.	2F]	.	4c]	.	4c\	-ge-	.	.
.	.	.	.	4B\	.	4d\	.	.	.
!LO:TX:t=P:problem:kreska pseudotaktowa	!	!	!	!	!	!LO:TX:t=P:problem:kreska pseudotaktowa	!	!	!
2G\	-si	2G\	.	(4A/	-ri-	2e\	.	1g\	.
!	!	!	!	!LO:TX:t=P:problem:kreska pseudotaktowa	!	!	!	!	!
.	.	.	.	4G/)	.	.	.	.	.
=31-	=31-	=31-	=31-	=31-	=31-	=31-	=31-	=31-	=31-
!	!	!LO:TX:t=P:problem:kreska pseudotaktowa	!	!LO:TX:t=P:problem:kreska pseudotaktowa	!	!LO:TX:t=P:problem:kreska pseudotaktowa	!	!	!
1D	U-	1D,<	-si	1A,<	-am	1d	.	.	.
!	!	!	!	!	!	!	!	!LO:SIC:v:t=custos g	!
!	!	!	!	!	!	!	!	!LO:TX:t=P:problem:kreska pseudotaktowa	!
.	.	.	.	.	.	.	.	2f#X,</	-si
!	!	!	!	!	!	!	!	!LO:LB:g=original	!
2E\	-ni-	2E\	U-	(4G/	qua-	2B/	.	2.g\	U-
.	.	.	.	4A/	.	.	.	.	.
!	!	!LO:SIC:v:t=custos G	!	!	!	!	!	!	!
!LO:TX:t=P:problem:kreska pseudotaktowa	!	!LO:TX:t=P:problem:kreska pseudotaktowa	!	!	!	!LO:TX:t=P:problem:kreska pseudotaktowa	!	!	!
2C/	-ge-	2C/	-ni-	4B/)	.	2e\	.	.	.
!	!	!	!	!LO:TX:t=P:problem:kreska pseudotaktowa	!	!	!	!LO:TX:t=P:problem:kreska pseudotaktowa	!
.	.	.	.	4c,</	-si	.	.	4a\	-ni-
!	!	!LO:LB:g=original	!	!	!	!	!	!	!
=32-	=32-	=32-	=32-	=32-	=32-	=32-	=32-	=32-	=32-
2G\	.	2G\	-ge-	2d\	U-	2d\	.	2b\	-ge-
!LO:TX:t=P:problem:kreska pseudotaktowa	!	!LO:TX:t=P:problem:kreska pseudotaktowa	!	!LO:TX:t=P:problem:kreska pseudotaktowa	!	!	!	!LO:TX:t=P:problem:kreska pseudotaktowa	!
2C/	.	2C/	.	[<2c\	.	1g	.	2cc\	.
2E\	.	2E\	.	2c\]	.	.	.	2a\	.
!	!	!LO:TX:t=P:problem:kreska pseudotaktowa	!	!LO:TX:t=P:problem:kreska pseudotaktowa	!	!	!	!LO:TX:t=P:problem:kreska pseudotaktowa	!
2F\	.	2F\	.	[<2A\	-ni-	1a\	.	[<2dd\	.
!	!	!	!	!LO:LB:g=original	!	!	!	!	!
=33-	=33-	=33-	=33-	=33-	=33-	=33-	=33-	=33-	=33-
!LO:TX:t=P:problem:kreska pseudotaktowa	!	!	!	!	!	!	!	!LO:N:xstem:cue	!
1D	.	1D	.	2A]	.	.	.	4dd\]	.
.	.	.	.	.	.	.	.	4cc\	.
!	!	!	!	!LO:TX:t=P:problem:kreska pseudotaktowa	!	!LO:TX:t=P:problem:kreska pseudotaktowa	!	!	!
.	.	.	.	[<2d\	-ge-	2fn\	.	(4b\	-ni-
!	!	!	!	!	!	!	!	!LO:TX:t=P:problem:kreska pseudotaktowa	!
.	.	.	.	.	.	.	.	4a\)	.
2G\	.	2G\	.	2d\]	.	2g\	.	2g,<\	-ti
!	!	!LO:TX:t=P:problem:kreska pseudotaktowa	!	!LO:TX:t=P:problem:kreska pseudotaktowa	!	!LO:TX:t=P:problem:kreska pseudotaktowa	!	!	!
2C/	-ni-	2C/	-ni-	2e\	.	2e\	-ni-	1cc\	à
=34-	=34-	=34-	=34-	=34-	=34-	=34-	=34-	=34-	=34-
!	!	!LO:TX:t=P:problem:kreska pseudotaktowa	!	!	!	!	!	!	!
1G,<	-ti	1G,<	-ti	2d\	.	2d,<\	-ti	.	.
!	!	!	!	!	!	!	!	!LO:TX:t=P:problem:kreska pseudotaktowa	!
.	.	.	.	2d\	-ni-	1g	à	2b\	.
!LO:LB:g=original	!	!	!	!LO:TX:t=P:problem:kreska pseudotaktowa	!	!	!	!LO:TX:t=P:problem:kreska pseudotaktowa	!
2rF	.	2rF	.	1c,<	-ti	.	.	[<1cc	Pa-
!	!	!	!	!	!	!LO:TX:t=P:problem:kreska pseudotaktowa	!	!	!
1A\	à	1A\	à	.	.	2e\	.	.	.
=35-	=35-	=35-	=35-	=35-	=35-	=35-	=35-	=35-	=35-
.	.	.	.	1A	à	(2.e\	Pa-	2cc]	.
4G\	.	4G\	.	.	.	.	.	4b\	.
!LO:TX:t=P:problem:kreska pseudotaktowa	!	!LO:TX:t=P:problem:kreska pseudotaktowa	!	!	!	!LO:TX:t=P:problem:kreska pseudotaktowa	!	!LO:TX:t=P:problem:kreska pseudotaktowa	!
4F\	.	4F\	.	.	.	4f\)	.	4a\	.
!	!	!	!	!	!	!	!	!LO:TX:t=P:problem:skreślona nuta	!
2G\	Pa-	2G\	Pa-	2B\	Pa-	2g\	.	2g\	.
!	!	!	!	!	!	!LO:SIC:v:t=custos f	!	!	!
!	!	!	!	!LO:TX:t=P:problem:kreska pseudotaktowa	!	!LO:TX:t=P:problem:kreska pseudotaktowa	!	!LO:TX:t=P:problem:kreska pseudotaktowa	!
1F\	.	1F\	.	[<2c\	.	2d\	.	[<2a\	.
!	!	!	!	!	!	!LO:LB:g=original	!	!	!
=36-	=36-	=36-	=36-	=36-	=36-	=36-	=36-	=36-	=36-
!	!	!	!	!	!	!	!	!LO:N:xstem:cue	!
.	.	.	.	2c]	.	1fn	.	4a\]	.
.	.	.	.	.	.	.	.	4g/	.
!LO:TX:t=P:problem:kreska pseudotaktowa	!	!LO:TX:t=P:problem:kreska pseudotaktowa	!	!	!	!	!	!	!
2D\	.	2D\	.	1d	.	.	.	4fny/	.
!	!	!	!	!	!	!	!	!LO:TX:t=P:problem:kreska pseudotaktowa:między nutą a kropką	!
.	.	.	.	.	.	.	.	4e/	.
!	!	!	!	!	!	!LO:TX:t=P:problem:kreska pseudotaktowa	!	!	!
1G	.	1G	.	.	.	[<1d	-tre	2d/	.
.	.	.	.	4c\	.	.	.	1g\	.
!	!	!	!	!LO:TX:t=P:problem:kreska pseudotaktowa	!	!	!	!	!
.	.	.	.	4B\	.	.	.	.	.
=37-	=37-	=37-	=37-	=37-	=37-	=37-	=37-	=37-	=37-
!	!	!	!	!LO:TX:t=P:problem:kreska pseudotaktowa	!	!	!	!	!
1D	.	1D	.	1A,<	-tre	1d,<]	.	.	.
.	.	.	.	.	.	.	.	2f#X/	.
!LO:TX:t=P:problem:kreska pseudotaktowa	!	!LO:TX:t=P:problem:kreska pseudotaktowa	!	!	!	!	!	!LO:TX:t=P:problem:kreska pseudotaktowa	!
1E	-tre,	1E,<	-tre	2.G/	a	2.B/	à	[<0g	.
!	!	!	!	!LO:TX:t=P:problem:kreska pseudotaktowa	!	!LO:TX:t=P:problem:kreska pseudotaktowa	!	!	!
.	.	.	.	4A\	Pa-	4c/	.	.	.
=38-	=38-	=38-	=38-	=38-	=38-	=38-	=38-	=38-	=38-
!	!	!	!	!	!	!	!	!LO:TX:t=P:problem:kreska pseudotaktowa:między nutą a kropką	!
2r	.	2rBB	.	2B\	.	2d\	Pa-	.	.
!LO:TX:t=P:problem:kreska pseudotaktowa	!	!	!	!LO:TX:t=P:problem:kreska pseudotaktowa	!	!LO:TX:t=P:problem:kreska pseudotaktowa	!	!	!
2C/	à	2C/	à	2c\	.	2e\	.	.	.
2G\	Pa-	2G\	Pa-	2d\	.	2B/	.	0g]	.
!LO:TX:t=P:problem:kreska pseudotaktowa	!	!LO:TX:t=P:problem:kreska pseudotaktowa	!	!	!	!	!	!	!
2C/	.	2C/	.	1c\	.	1e\	.	.	.
=39-	=39-	=39-	=39-	=39-	=39-	=39-	=39-	=39-	=39-
1G	.	1G	.	.	.	.	.	.	.
.	.	.	.	2B\	.	2d\	.	.	.
1Cl;	-tre	1Cl;	-tre	1cl;	-tre	1el;	-tre.	1gl;	-tre
!	!	!LO:LB:g=original	!	!LO:LB:g=original	!	!	!	!LO:LB:g=original	!
=40||	=40||	=40||	=40||	=40||	=40||	=40||	=40||	=40||	=40||
*>B	*	*>B	*	*>B	*	*>B	*	*>B	*
*M2/1	*	*M2/1	*	*M2/1	*	*M2/1	*	*M2/1	*
*met(C|)	*	*met(C|)	*	*met(C|)	*	*met(C|)	*	*met(C|)	*
1G	Ple-	1G	Ple-	1G	Ple-	1d	Ple-	1g	Ple-
!LO:TX:t=P:problem:kreska pseudotaktowa	!	!LO:TX:t=P:problem:kreska pseudotaktowa	!	!	!	!LO:TX:t=P:problem:kreska pseudotaktowa	!	!LO:TX:t=P:problem:kreska pseudotaktowa	!
1C	-num	1C,<	-num	1.c	.	1e,<	-num	1g	-num
=41-	=41-	=41-	=41-	=41-	=41-	=41-	=41-	=41-	=41-
*lig	*	*lig	*	*	*	*	*	*lig	*
1D	Gra-	1D	Gra-	.	.	2A/	gra-	1fny	Gra-
!	!	!	!	!LO:TX:t=P:problem:kreska pseudotaktowa	!	!	!	!	!
.	.	.	.	2B\	.	1d	.	.	.
!	!	!	!	!LO:TX:t=P:problem:kreska pseudotaktowa	!	!	!	!	!
1E	.	1E	.	1G,<	-num	.	.	1g	.
*Xlig	*	*Xlig	*	*	*	*	*	*Xlig	*
.	.	.	.	.	.	2c\	-ti-	.	.
=42-	=42-	=42-	=42-	=42-	=42-	=42-	=42-	=42-	=42-
*	*	*	*	*	*	*	*	*lig	*
!	!	!	!	!	!	!LO:TX:t=P:problem:kreska pseudotaktowa	!	!	!
1.D	.	1.D	.	2.F/	gra-	1d,<	-ae	1a	.
!	!	!	!	!LO:TX:t=P:problem:kreska pseudotaktowa	!	!	!	!	!
.	.	.	.	4G/	.	.	.	.	.
.	.	.	.	2A\	.	2re	.	1f	.
*	*	*	*	*	*	*	*	*Xlig	*
!LO:TX:t=P:problem:kreska pseudotaktowa	!	!LO:TX:t=P:problem:kreska pseudotaktowa	!	!LO:TX:t=P:problem:kreska pseudotaktowa	!	!	!	!	!
2D/	-ti-	2D/	-ti-	2d\	.	1a\	Ple-	.	.
=43-	=43-	=43-	=43-	=43-	=43-	=43-	=43-	=43-	=43-
*	*	*	*	*	*	*	*	*lig	*
(2AA/	-ae	(2AA/	-ae	2e\	.	.	.	1e	.
!LO:TX:t=P:problem:kreska pseudotaktowa	!	!LO:TX:t=P:problem:kreska pseudotaktowa	!	!	!	!	!	!	!
2C,</)	.	2C/)	.	1c	.	1g	.	.	.
1GG	Ple-	1GG	Ple-	.	.	.	.	1d	.
*	*	*	*	*	*	*	*	*Xlig	*
!	!	!	!	!	!	!LO:TX:a:t=P:problem:♮ above	!	!	!
.	.	.	.	2B\	-ti-	2fn\	.	.	.
=44-	=44-	=44-	=44-	=44-	=44-	=44-	=44-	=44-	=44-
*	*	*	*	*	*	*	*	*lig	*
!LO:SIC:v:t=custos D	!	!	!	!	!	!	!	!	!
!LO:TX:t=P:problem:kreska pseudotaktowa	!	!LO:TX:t=P:problem:kreska pseudotaktowa	!	!LO:TX:t=P:problem:kreska pseudotaktowa	!	!LO:TX:t=P:problem:kreska pseudotaktowa	!	!	!
1C,<	-num	1C,<	-num	1c,<	-ae	1g,<	-num	1e	.
!LO:LB:g=original	!	!	!	!	!	!LO:TX:t=P:problem:kreska pseudotaktowa	!	!	!
1D	gra-	1D	gra-	1A	Ple-	1d	gra-	1f	.
*	*	*	*	*	*	*	*	*Xlig	*
=45-	=45-	=45-	=45-	=45-	=45-	=45-	=45-	=45-	=45-
!	!	!	!	!LO:TX:t=P:problem:kreska pseudotaktowa	!	!	!	!	!
2AA/	.	2AA/	.	1A,<	-num	(2c\	.	2e/	.
2D/	.	2D/	.	.	.	2d\)	.	1d	.
!LO:TX:t=P:problem:kreska pseudotaktowa	!	!LO:TX:t=P:problem:kreska pseudotaktowa	!	!	!	!LO:TX:t=P:problem:kreska pseudotaktowa	!	!	!
1AA	.	1AA	.	1A	gra-	1e	.	.	.
.	.	.	.	.	.	.	.	2c/	-ti-
!	!	!	!	!	!	!LO:PB:g=original	!	!	!
=46-	=46-	=46-	=46-	=46-	=46-	=46-	=46-	=46-	=46-
!	!	!	!	!	!	!	!	!LO:TX:t=P:problem:kreska pseudotaktowa	!
2BB/	.	2BB/	.	2D/	.	2d\	.	1d,<	-ae
2GG/	.	2GG/	.	1G	.	2B/	-ti-	.	.
*lig	*	*lig	*	*	*	*	*	*	*
!	!	!	!	!	!	!LO:TX:t=P:problem:kreska pseudotaktowa	!	!	!
1D	.	1D	.	.	.	1A,<	-ae	0r	.
.	.	.	.	2F#X/	-ti-	.	.	.	.
=47-	=47-	=47-	=47-	=47-	=47-	=47-	=47-	=47-	=47-
!	!	!LO:TX:t=P:problem:kreska pseudotaktowa	!	!LO:TX:t=P:problem:kreska pseudotaktowa	!	!	!	!	!
1E	.	1E	.	1G,<	-ae	1g	et	.	.
*Xlig	*	*Xlig	*	*	*	*	*	*	*
!	!	!	!	!LO:TX:t=P:problem:kreska pseudotaktowa	!	!	!	!LO:TX:t=P:problem:kreska pseudotaktowa	!
!	!	!LO:LB:g=original	!	!LO:LB:g=original	!	!	!	!	!
2.D/	.	2.D/	.	1A	et	(2.fn\	Ve-	1r	.
4D/	-ti-	4D/	-ti-	.	.	4g\)	.	.	.
=48-	=48-	=48-	=48-	=48-	=48-	=48-	=48-	=48-	=48-
!LO:TX:t=P:problem:kreska pseudotaktowa	!	!LO:TX:t=P:problem:kreska pseudotaktowa	!	!	!	!LO:TX:t=P:problem:kreska pseudotaktowa	!	!	!
1C	-ae	1C,<	-ae	2c\	Ve-	1e	.	1g	et
!	!	!	!	!LO:TX:t=P:problem:kreska pseudotaktowa	!	!	!	!	!
.	.	.	.	2G/	-ri-	.	.	.	.
2r	.	2r	.	2D/	-ta-	1f	.	1.a	Ve-
1D\	et	1D\	et	1d\	.	.	.	.	.
=49-	=49-	=49-	=49-	=49-	=49-	=49-	=49-	=49-	=49-
.	.	.	.	.	.	2f\	.	.	.
!LO:TX:t=P:problem:kreska pseudotaktowa	!	!LO:TX:t=P:problem:kreska pseudotaktowa	!	!LO:TX:t=P:problem:kreska pseudotaktowa	!	!	!	!LO:TX:t=P:problem:kreska pseudotaktowa	!
2E\	.	2E\	.	2B\	.	1e	.	[<2g\	.
2C/	Ve-	2C/	Ve-	1A	.	.	.	2g]/	.
!	!	!	!	!	!	!LO:SIC:v:t=custos d	!	!	!
!	!	!	!	!	!	!LO:TX:t=P:problem:kreska pseudotaktowa	!	!LO:TX:t=P:problem:kreska pseudotaktowa	!
1D\	.	1D\	.	.	.	2d\	.	2f/	-ri-
!	!	!	!	!	!	!LO:LB:g=original	!	!	!
=50-	=50-	=50-	=50-	=50-	=50-	=50-	=50-	=50-	=50-
!	!	!	!	!LO:TX:t=P:problem:kreska pseudotaktowa	!	!	!	!	!
.	.	.	.	1A,<	-tis	2.d\	.	2.a\	-ta-
(4C/	-ri-	4C/	.	.	.	.	.	.	.
!LO:TX:t=P:problem:kreska pseudotaktowa	!	!	!	!	!	!	!	!	!
4BB/)	.	4BB/	-ri-	.	.	8A/L	-ri-	4b\	.
!	!	!	!	!	!	!LO:TX:t=P:problem:kreska pseudotaktowa	!	!	!
.	.	.	.	.	.	8B/J	.	.	.
!	!	!LO:TX:t=P:problem:kreska pseudotaktowa	!	!	!	!	!	!	!
1AA	-ta-	1AA	-ta-	2r	.	1c	-ta-	0cc	.
!	!	!	!	!LO:TX:t=P:problem:kreska pseudotaktowa	!	!	!	!	!
.	.	.	.	[<2e\	et	.	.	.	.
=51-	=51-	=51-	=51-	=51-	=51-	=51-	=51-	=51-	=51-
!LO:TX:t=P:problem:kreska pseudotaktowa	!	!	!	!LO:N:xstem:cue	!	!LO:TX:t=P:problem:kreska pseudotaktowa	!	!	!
1A	.	1A	.	4e\]	.	1c,<	-tis	.	.
.	.	.	.	4d\	.	.	.	.	.
!	!	!	!	!LO:TX:t=P:problem:kreska pseudotaktowa	!	!	!	!	!
.	.	.	.	[<2c\	Ve-	.	.	.	.
*lig	*	*lig	*	*	*	*	*	*	*
!	!	!	!	!	!	!	!	!LO:SIC:v:t=custos a	!
!	!	!	!	!	!	!	!	!LO:TX:t=P:problem:kreska pseudotaktowa	!
1G	.	1G	.	2c\]	.	1g	et	1dd	.
.	.	.	.	2B\	-ri-	.	.	.	.
!	!	!	!	!	!	!	!	!LO:LB:g=original	!
=52-	=52-	=52-	=52-	=52-	=52-	=52-	=52-	=52-	=52-
!LO:TX:t=P:problem:kreska pseudotaktowa	!	!	!	!	!	!LO:TX:t=P:problem:kreska pseudotaktowa	!	!	!
1A	.	1A	.	1c	-ta-	1e	Ve-	2a\	.
*Xlig	*	*Xlig	*	*	*	*	*	*	*
.	.	.	.	.	.	.	.	1cc	.
*	*	*lig	*	*	*	*	*	*	*
1G	.	1G	.	1d	.	1g	.	.	.
!	!	!	!	!	!	!	!	!LO:TX:t=P:problem:kreska pseudotaktowa	!
.	.	.	.	.	.	.	.	2b\	.
=53-	=53-	=53-	=53-	=53-	=53-	=53-	=53-	=53-	=53-
!	!	!LO:TX:t=P:problem:kreska pseudotaktowa	!	!LO:TX:t=P:problem:kreska pseudotaktowa	!	!	!	!LO:TX:t=P:problem:kreska pseudotaktowa	!
1A	.	1A	.	1c	.	1e	-ri-	1a	.
*	*	*Xlig	*	*2\left	*	*	*	*	*
!	!	!	!	!LO:TX:t=P:problem:skreślony fragment	!	!	!	!	!
!	!	!	!	!LO:LB:g=original	!	!	!	!	!
2G\	.	2G\	.	2B\	.	2d\	-ta-	2g\	.
*	*	*	*	*2\right	*	*	*	*	*
!	!	!	!	!LO:TX:t=P:problem:kreska pseudotaktowa	!	!	!	!	!
1F#X\	.	1F#X\	.	[<2c\	.	1f#X\	.	1a\	.
=54-	=54-	=54-	=54-	=54-	=54-	=54-	=54-	=54-	=54-
!	!	!	!	!LO:N:xstem:cue	!	!	!	!	!
.	.	.	.	4c]	.	.	.	.	.
.	.	.	.	4B\	.	.	.	.	.
!LO:TX:t=P:problem:kreska pseudotaktowa	!	!LO:TX:t=P:problem:kreska pseudotaktowa	!	!	!	!	!	!	!
2G\	.	2G\	.	4A/	.	4e\	.	1g	.
!	!	!	!	!	!	!LO:TX:t=P:problem:kreska pseudotaktowa	!	!	!
.	.	.	.	4G/	.	4d\	.	.	.
1D	.	1D	.	1A	.	1d	.	.	.
.	.	.	.	.	.	.	.	2f#X/	.
=55-	=55-	=55-	=55-	=55-	=55-	=55-	=55-	=55-	=55-
0GGl;	-tis.	0GGl;	-tis.	0Bl;,<	-tis.	0dl;	-tis.	0gl;	-tis.
!LO:LB:g=original	!	!LO:LB:g=original	!	!	!	!LO:LB:g=original	!	!	!
=56||	=56||	=56||	=56||	=56||	=56||	=56||	=56||	=56||	=56||
*>C	*	*>C	*	*>C	*	*>C	*	*>C	*
*M2/1	*	*M2/1	*	*M2/1	*	*M2/1	*	*M2/1	*
*met(C|)	*	*met(C|)	*	*met(C|)	*	*met(C|)	*	*met(C|)	*
!	!	!	!	!LO:TX:t=P:problem:kreska pseudotaktowa	!	!	!	!	!
0r	.	0r	.	0r	.	00r	.	(1cc	O-
.	.	.	.	.	.	.	.	2dd\)	.
!	!	!	!	!	!	!	!	!LO:TX:t=P:problem:kreska pseudotaktowa	!
.	.	.	.	.	.	.	.	2dd\	-mni-
=57-	=57-	=57-	=57-	=57-	=57-	=57-	=57-	=57-	=57-
!LO:TX:t=P:problem:kreska pseudotaktowa	!	!LO:TX:t=P:problem:kreska pseudotaktowa	!	!	!	!	!	!	!
*	*	*	*	*	*	*	*	*lig	*
1r	.	1r	.	(1c	O-	.	.	1cc	-a
(1G	O-	(1G	O-	2d\)	.	.	.	1b	.
*	*	*	*	*	*	*	*	*Xlig	*
.	.	.	.	2d\	-mni-	.	.	.	.
=58-	=58-	=58-	=58-	=58-	=58-	=58-	=58-	=58-	=58-
!	!	!	!	!LO:TX:t=P:problem:kreska pseudotaktowa	!	!LO:TX:t=P:problem:kreska pseudotaktowa	!	!	!
2A\)	.	2A\)	.	2c,<\	-a	1r	.	4a\	O-
.	.	.	.	.	.	.	.	4b\	.
!LO:TX:t=P:problem:kreska pseudotaktowa	!	!LO:TX:t=P:problem:kreska pseudotaktowa	!	!LO:TX:t=P:problem:kreska pseudotaktowa	!	!	!	!	!
2A\	-mni-	2A\	-mni-	2c\	per	.	.	4cc\	.
!	!	!	!	!	!	!	!	!LO:TX:t=P:problem:kreska pseudotaktowa	!
.	.	.	.	.	.	.	.	4a\	.
2G,<\	-a	2G,<\	-a	2B\	I-	(1g	O-	4b\	.
.	.	.	.	.	.	.	.	4g\	.
!LO:TX:t=P:problem:kreska pseudotaktowa	!	!	!	!LO:TX:t=P:problem:kreska pseudotaktowa	!	!	!	!	!
2G\	per	2G\	per	2B,<\	-psum	.	.	1dd\	.
!	!	!	!	!LO:PB:g=original	!	!	!	!	!
=59-	=59-	=59-	=59-	=59-	=59-	=59-	=59-	=59-	=59-
!	!	!LO:TX:t=P:problem:kreska pseudotaktowa	!	!	!	!	!	!	!
1Fn	I-	1Fn	i-	2c\	fa-	2a\)	.	.	.
!	!	!	!	!LO:TX:t=P:problem:kreska pseudotaktowa	!	!LO:TX:t=P:problem:kreska pseudotaktowa	!	!LO:TX:t=P:problem:kreska pseudotaktowa	!
.	.	.	.	2A\	.	2a\	-mni-	2cc\	-mni-
2E,<\	-psum	2E,<\	-psum	2B,<\	-cta	2g,<\	-a	2b,<\	-a
!LO:TX:t=P:problem:kreska pseudotaktowa	!	!LO:TX:t=P:problem:kreska pseudotaktowa:między nutą a kropką	!	!LO:TX:t=P:problem:kreska pseudotaktowa:między nutą a kropką	!	!	!	!	!
[<2A\	fa-	2.A\	fa-	[<2A\	fa-	1e\	per	2.cc\	per
=60-	=60-	=60-	=60-	=60-	=60-	=60-	=60-	=60-	=60-
!LO:N:xstem:cue	!	!	!	!LO:N:xstem:cue	!	!	!	!	!
4A]	.	.	.	4A]	.	.	.	.	.
4G\	.	4G\	.	4B\	.	.	.	4b\	.
!	!	!	!	!	!	!LO:TX:t=P:problem:kreska pseudotaktowa	!	!LO:TX:t=P:problem:kreska pseudotaktowa	!
4Fn\	.	4Fn\	.	4c\	.	2fn\	.	2a\	I-
!LO:TX:t=P:problem:kreska pseudotaktowa	!	!LO:TX:t=P:problem:kreska pseudotaktowa	!	!LO:TX:t=P:problem:kreska pseudotaktowa	!	!	!	!	!
4D\	.	4D\	.	4d\	.	.	.	.	.
(4E\	.	(4E\	.	2c\	.	4g\	I-	(4g\	.
4D\	.	4D\	.	.	.	4f\	.	4a\)	.
!	!	!	!	!LO:TX:t=P:problem:kreska pseudotaktowa	!	!LO:TX:t=P:problem:kreska pseudotaktowa	!	!	!
4E\	.	4E\	.	2c\	-cta	2e\	.	(4cc\	-psum
!LO:TX:t=P:problem:kreska pseudotaktowa	!	!LO:TX:t=P:problem:kreska pseudotaktowa	!	!	!	!	!	!LO:TX:t=P:problem:kreska pseudotaktowa	!
4F\)	.	4F\)	.	.	.	.	.	4a\)	.
=61-	=61-	=61-	=61-	=61-	=61-	=61-	=61-	=61-	=61-
2G\	.	2G\	.	2B,<\	sunt	2d,<\	-psum	(2b\	Fa-
!LO:TX:t=P:problem:kreska pseudotaktowa	!	!LO:TX:t=P:problem:kreska pseudotaktowa	!	!LO:TX:t=P:problem:kreska pseudotaktowa	!	!LO:TX:t=P:problem:kreska pseudotaktowa	!	!	!
2C/	-cta	2C/	-cta	2G/	et	2e\	fa-	2cc\)	.
2F,<\	sunt	2F,<\	sunt	2A\	si-	2c\	.	2.a\	.
!LO:TX:t=P:problem:kreska pseudotaktowa	!	!LO:TX:t=P:problem:kreska pseudotaktowa	!	!LO:TX:t=P:problem:kreska pseudotaktowa	!	!	!	!	!
[<2F\	et	[<2F\	et	2A\	-ne	2c\	-cta	.	.
!	!	!	!	!	!	!	!	!LO:SIC:v:t=custos a	!
!	!	!	!	!	!	!	!	!LO:TX:t=P:problem:kreska pseudotaktowa	!
.	.	.	.	.	.	.	.	4a\	-cta
!	!	!	!	!	!	!LO:LB:g=original	!	!LO:LB:g=original	!
=62-	=62-	=62-	=62-	=62-	=62-	=62-	=62-	=62-	=62-
2F]	.	2F]	.	4A/	si-	2c,<\	sunt	2a,<\	sunt
.	.	.	.	4F/	.	.	.	.	.
!	!	!	!	!LO:TX:t=P:problem:kreska pseudotaktowa	!	!	!	!	!
1D	si-	1D	si-	2A/	.	1fn	et	(4dd\	et
.	.	.	.	.	.	.	.	4ee\)	.
.	.	.	.	2B\	.	.	.	2dd\	si-
!	!	!LO:TX:t=P:problem:kreska pseudotaktowa	!	!LO:TX:t=P:problem:kreska pseudotaktowa	!	!	!	!LO:TX:t=P:problem:kreska pseudotaktowa	!
1E\	-ne	[<2E\	-ne	2B\	-ne	1g\	si-	2b,<\	-ne
!	!	!LO:LB:g=original	!	!	!	!	!	!	!
=63-	=63-	=63-	=63-	=63-	=63-	=63-	=63-	=63-	=63-
.	.	2E]	.	4c\	I-	.	.	(2ee\	I-
.	.	.	.	4G/	.	.	.	.	.
!LO:SIC:v:t=custos F	!	!	!	!	!	!	!	!	!
!LO:TX:t=P:problem:kreska pseudotaktowa	!	!	!	!LO:TX:t=P:problem:kreska pseudotaktowa	!	!LO:TX:t=P:problem:kreska pseudotaktowa	!	!LO:TX:t=P:problem:kreska pseudotaktowa	!
[<2F\	I-	1F	I-	2c\	.	2a\	-ne	2a\)	.
!LO:TX:a:t=P:problem:brak zakończenia ligatury	!	!	!	!	!	!	!	!	!
!LO:PB:g=original	!	!	!	!	!	!	!	!	!
2F]	.	.	.	2d\	.	1g	I-	2b,<\	-pso
!LO:TX:t=P:problem:kreska pseudotaktowa	!	!LO:TX:t=P:problem:kreska pseudotaktowa	!	!LO:TX:t=P:problem:kreska pseudotaktowa	!	!	!	!LO:TX:t=P:problem:kreska pseudotaktowa	!
[<2E\	-pso	1E\	-pso	2e,<\	-pso	.	.	2cc\	fa-
!	!	!	!	!LO:LB:g=original	!	!	!	!	!
=64-	=64-	=64-	=64-	=64-	=64-	=64-	=64-	=64-	=64-
!	!	!	!	!	!	!LO:TX:t=P:problem:kreska pseudotaktowa	!	!	!
2E]	.	.	.	2c\	fa-	1fn,<	-pso	(2a\	.
!	!	!	!	!LO:TX:t=P:problem:kreska pseudotaktowa	!	!	!	!	!
1D	Fa-	1D	fa-	2d\	-ctum	.	.	2b\)	.
.	.	.	.	2B,<\	est	(4e\	Fa-	2g,<\	-ctum
.	.	.	.	.	.	4d\	.	.	.
!	!	!	!	!LO:TX:t=P:problem:kreska pseudotaktowa	!	!	!	!LO:TX:t=P:problem:kreska pseudotaktowa	!
1C/	-ctu(m)	1C/	-ctum	[<2c\	ni-	4e\	.	2cc\	est
.	.	.	.	.	.	4f\)	.	.	.
=65-	=65-	=65-	=65-	=65-	=65-	=65-	=65-	=65-	=65-
.	.	.	.	2c]	.	2e,<\	-ctum	(2a\	ni-
!	!	!	!	!LO:TX:t=P:problem:kreska pseudotaktowa	!	!LO:TX:t=P:problem:kreska pseudotaktowa	!	!	!
1D	e(st)	1D	eſt	2A\	.	2f#X\	eſt	2dd\)	.
.	.	.	.	2A,<\	-hil	1f#X	ni-	2a,<\	-hil
!LO:TX:t=P:problem:kreska pseudotaktowa	!	!LO:TX:t=P:problem:kreska pseudotaktowa	!	!LO:TX:t=P:problem:kreska pseudotaktowa	!	!	!	!LO:TX:t=P:problem:kreska pseudotaktowa	!
2D\	ni-	2D\	ni-	2d\	si-	.	.	2a\	fa-
=66-	=66-	=66-	=66-	=66-	=66-	=66-	=66-	=66-	=66-
2GG,</	-hil	2GG,</	-hil	2B,<\	-ne	2g,<\	-hil	2b\	.
!	!	!	!	!LO:TX:t=P:problem:kreska pseudotaktowa	!	!	!	!	!
1C	fa-	1C	Fa-	2G/	I-	1e	fa-	1cc	.
.	.	.	.	2G,</	-pso	.	.	.	.
!LO:TX:t=P:problem:kreska pseudotaktowa	!	!LO:TX:t=P:problem:kreska pseudotaktowa	!	!LO:TX:t=P:problem:kreska pseudotaktowa	!	!	!	!LO:TX:t=P:problem:kreska pseudotaktowa	!
2BB/	.	2BB/	.	2G/	fac-	2d\	.	2dd\	.
!	!	!	!	!	!	!LO:LB:g=original	!	!	!
=67-	=67-	=67-	=67-	=67-	=67-	=67-	=67-	=67-	=67-
2C,</	-ctu(m)	2C,</	-ctum	2G,</	-tum	2e,<\	-ctum	2cc,<\	-ctum
!LO:TX:t=P:problem:kreska pseudotaktowa	!	!LO:TX:t=P:problem:kreska pseudotaktowa	!	!LO:TX:t=P:problem:kreska pseudotaktowa	!	!LO:TX:t=P:problem:kreska pseudotaktowa	!	!LO:TX:t=P:problem:kreska pseudotaktowa	!
2C/	est	2C/	e(st)	2G/	est	2e\	est	2cc\	est
!	!	!	!	!LO:TX:t=P:problem:kreska pseudotaktowa	!	!	!	!	!
1C	ni-	1C	ni-	1G	ni-	1e	ni-	1cc	ni-
=68-	=68-	=68-	=68-	=68-	=68-	=68-	=68-	=68-	=68-
!	!	!LO:TX:b:t=Plenum\nut supra	!	!LO:TX:b:t=Plenum\nut supra	!	!LO:TX:b:t=Plenum\nut supra	!	!LO:TX:b:t=Plenum\nut supra	!
0GGl;	-hil.	0GGl;	-hil.	0Gl;	-hil.	0dl;	-hil.	0bl;	-hil.
!	!	!	!	!	!	!LO:LB:g=original	!	!	!
=69||	=69||	=69||	=69||	=69||	=69||	=69||	=69||	=69||	=69||
*>B	*	*>B	*	*>B	*	*>B	*	*>B	*
*M2/1	*	*M2/1	*	*M2/1	*	*M2/1	*	*M2/1	*
*met(C|)	*	*met(C|)	*	*met(C|)	*	*met(C|)	*	*met(C|)	*
1G	Ple-	1Gyy	Ple-	1Gyy	Ple-	1dyy	Ple-	1gyy	Ple-
!LO:TX:t=P:problem:kreska pseudotaktowa	!	!LO:TX:t=P:problem:kreska pseudotaktowa	!	!	!	!LO:TX:t=P:problem:kreska pseudotaktowa	!	!LO:TX:t=P:problem:kreska pseudotaktowa	!
1C,<	-num	1C,<yy	-num	1.cyy	.	1e,<yy	-num	1gyy	-num
=70-	=70-	=70-	=70-	=70-	=70-	=70-	=70-	=70-	=70-
*	*	*ligy	*	*	*	*	*	*ligy	*
!LO:TX:t=P:problem:kreska pseudotaktowa	!	!	!	!	!	!	!	!	!
1D	gra-	1Dyy	Gra-	.	.	2A/yy	gra-	1fyyny	Gra-
!	!	!	!	!LO:TX:t=P:problem:kreska pseudotaktowa	!	!	!	!	!
.	.	.	.	2B\yy	.	1dyy	.	.	.
!LO:TX:t=P:problem:kreska pseudotaktowa	!	!	!	!LO:TX:t=P:problem:kreska pseudotaktowa	!	!	!	!	!
1E	.	1Eyy	.	1G,<yy	-num	.	.	1gyy	.
*	*	*Xlig	*	*	*	*	*	*Xlig	*
.	.	.	.	.	.	2c\yy	-ti-	.	.
=71-	=71-	=71-	=71-	=71-	=71-	=71-	=71-	=71-	=71-
*	*	*	*	*	*	*	*	*ligy	*
!	!	!	!	!	!	!LO:TX:t=P:problem:kreska pseudotaktowa	!	!	!
1.D	.	1.Dyy	.	2.F/yy	gra-	1d,<yy	-ae	1ayy	.
!	!	!	!	!LO:TX:t=P:problem:kreska pseudotaktowa	!	!	!	!	!
.	.	.	.	4G/yy	.	.	.	.	.
.	.	.	.	2A\yy	.	2reyy	.	1fyy	.
*	*	*	*	*	*	*	*	*Xlig	*
!LO:TX:t=P:problem:kreska pseudotaktowa	!	!LO:TX:t=P:problem:kreska pseudotaktowa	!	!LO:TX:t=P:problem:kreska pseudotaktowa	!	!	!	!	!
2D/	-ti-	2D/yy	-ti-	2d\yy	.	1a\yy	Ple-	.	.
!LO:LB:g=original	!	!	!	!	!	!	!	!	!
=72-	=72-	=72-	=72-	=72-	=72-	=72-	=72-	=72-	=72-
*	*	*	*	*	*	*	*	*ligy	*
2AA/	-ae	(y2AA/yy	-ae	2e\yy	.	.	.	1eyy	.
!LO:TX:t=P:problem:kreska pseudotaktowa	!	!LO:TX:t=P:problem:kreska pseudotaktowa	!	!	!	!	!	!	!
2C/	.	2C/)yy	.	1cyy	.	1gyy	.	.	.
1GG	ple-	1GGyy	Ple-	.	.	.	.	1dyy	.
*	*	*	*	*	*	*	*	*Xlig	*
!	!	!	!	!	!	!LO:TX:t=P:problem:♮ above	!	!	!
.	.	.	.	2B\yy	-ti-	2fn\yy	.	.	.
=73-	=73-	=73-	=73-	=73-	=73-	=73-	=73-	=73-	=73-
*	*	*	*	*	*	*	*	*ligy	*
!LO:TX:t=P:problem:kreska pseudotaktowa	!	!LO:TX:t=P:problem:kreska pseudotaktowa	!	!LO:TX:t=P:problem:kreska pseudotaktowa	!	!LO:TX:t=P:problem:kreska pseudotaktowa	!	!	!
1C	-num	1C,<yy	-num	1c,<yy	-ae	1g,<yy	-num	1eyy	.
!LO:TX:t=P:problem:kreska pseudotaktowa	!	!	!	!	!	!LO:TX:t=P:problem:kreska pseudotaktowa	!	!	!
1D	Gra-	1Dyy	gra-	1Ayy	Ple-	1dyy	gra-	1fyy	.
*	*	*	*	*	*	*	*	*Xlig	*
=74-	=74-	=74-	=74-	=74-	=74-	=74-	=74-	=74-	=74-
!	!	!	!	!LO:TX:t=P:problem:kreska pseudotaktowa	!	!	!	!	!
(2AA/	.	2AA/yy	.	1A,<yy	-num	(y2c\yy	.	2e/yy	.
!LO:TX:t=P:problem:kreska pseudotaktowa	!	!	!	!	!	!	!	!	!
2D/)	.	2D/yy	.	.	.	2d\)yy	.	1dyy	.
!LO:TX:t=P:problem:kreska pseudotaktowa	!	!LO:TX:t=P:problem:kreska pseudotaktowa	!	!	!	!LO:TX:t=P:problem:kreska pseudotaktowa	!	!	!
1AA	.	1AAyy	.	1Ayy	gra-	1eyy	.	.	.
.	.	.	.	.	.	.	.	2c/yy	-ti-
!	!	!	!	!	!	!LO:PB:g=original	!	!	!
=75-	=75-	=75-	=75-	=75-	=75-	=75-	=75-	=75-	=75-
!	!	!	!	!	!	!	!	!LO:TX:t=P:problem:kreska pseudotaktowa	!
2BB/	.	2BB/yy	.	2D/yy	.	2d\yy	.	1d,<yy	-ae
!LO:TX:t=P:problem:kreska pseudotaktowa	!	!	!	!	!	!	!	!	!
2GG/	.	2GG/yy	.	1Gyy	.	2B/yy	-ti-	.	.
*lig	*	*ligy	*	*	*	*	*	*	*
!	!	!	!	!	!	!LO:TX:t=P:problem:kreska pseudotaktowa	!	!	!
1D	.	1Dyy	.	.	.	1A,<yy	-ae	0ryy	.
.	.	.	.	2F#X/yy	-ti-	.	.	.	.
=76-	=76-	=76-	=76-	=76-	=76-	=76-	=76-	=76-	=76-
!	!	!LO:TX:t=P:problem:kreska pseudotaktowa	!	!LO:TX:t=P:problem:kreska pseudotaktowa	!	!	!	!	!
1E	.	1Eyy	.	1G,<yy	-ae	1gyy	et	.	.
*Xlig	*	*Xlig	*	*	*	*	*	*	*
!	!	!	!	!LO:TX:t=P:problem:kreska pseudotaktowa	!	!	!	!LO:TX:t=P:problem:kreska pseudotaktowa	!
!	!	!	!	!LO:LB:g=original	!	!	!	!	!
2.D/	.	2.D/yy	.	1Ayy	et	(y2.fn\yy	Ve-	1ryy	.
4D/	-ti-	4D/yy	-ti-	.	.	4g\)yy	.	.	.
=77-	=77-	=77-	=77-	=77-	=77-	=77-	=77-	=77-	=77-
!LO:TX:t=P:problem:kreska pseudotaktowa	!	!LO:TX:t=P:problem:kreska pseudotaktowa	!	!	!	!LO:TX:t=P:problem:kreska pseudotaktowa	!	!	!
1C,<	-ae	1C,<yy	-ae	2c\yy	Ve-	1eyy	.	1gyy	et
!	!	!	!	!LO:TX:t=P:problem:kreska pseudotaktowa	!	!	!	!	!
.	.	.	.	2G/yy	-ri-	.	.	.	.
2r	.	2ryy	.	2D/yy	-ta-	1fyy	.	1.ayy	Ve-
1D\	et	1D\yy	et	1d\yy	.	.	.	.	.
=78-	=78-	=78-	=78-	=78-	=78-	=78-	=78-	=78-	=78-
.	.	.	.	.	.	2f\yy	.	.	.
!LO:TX:t=P:problem:kreska pseudotaktowa	!	!LO:TX:t=P:problem:kreska pseudotaktowa	!	!LO:TX:t=P:problem:kreska pseudotaktowa	!	!	!	!LO:TX:t=P:problem:kreska pseudotaktowa	!
2E\	.	2E\yy	.	2B\yy	.	1eyy	.	[y<2g\yy	.
2C/	ve-	2C/yy	Ve-	1Ayy	-tis	.	.	2g/]yy	.
!	!	!	!	!	!	!LO:SIC:v:t=custos d	!	!	!
!	!	!	!	!	!	!LO:TX:t=P:problem:kreska pseudotaktowa	!	!LO:TX:t=P:problem:kreska pseudotaktowa	!
1D\	-ri-	1D\yy	.	.	.	2d\yy	.	2f/yy	-ri-
!	!	!	!	!	!	!LO:LB:g=original	!	!	!
=79-	=79-	=79-	=79-	=79-	=79-	=79-	=79-	=79-	=79-
!	!	!	!	!LO:TX:t=P:problem:kreska pseudotaktowa	!	!	!	!	!
.	.	.	.	1A,<yy	-tis	2.d\yy	.	2.a\yy	-ta-
4C/	.	4C/yy	.	.	.	.	.	.	.
!LO:TX:t=P:problem:kreska pseudotaktowa	!	!	!	!	!	!	!	!	!
4BB/	.	4BB/yy	-ri-	.	.	8A/Lyy	-ri-	4b\yy	.
!	!	!	!	!	!	!LO:TX:t=P:problem:kreska pseudotaktowa	!	!	!
.	.	.	.	.	.	8B/Jyy	.	.	.
!LO:LB:g=original	!	!LO:TX:t=P:problem:kreska pseudotaktowa	!	!	!	!	!	!	!
(1AA	-ta-	1AAyy	-ta-	2rcyy	.	1cyy	-ta-	0ccyy	.
!	!	!	!	!LO:TX:t=P:problem:kreska pseudotaktowa	!	!	!	!	!
.	.	.	.	[y<2e\yy	et	.	.	.	.
=80-	=80-	=80-	=80-	=80-	=80-	=80-	=80-	=80-	=80-
!	!	!	!	!LO:N:xstem:cue	!	!LO:TX:t=P:problem:kreska pseudotaktowa	!	!	!
1A)	.	1Ayy	.	4e]yy	.	1c,<yy	-tis	.	.
.	.	.	.	4d\yy	.	.	.	.	.
!	!	!	!	!LO:TX:t=P:problem:kreska pseudotaktowa	!	!	!	!	!
.	.	.	.	[y<2c\yy	Ve-	.	.	.	.
*lig	*	*ligy	*	*	*	*	*	*	*
!	!	!	!	!	!	!	!	!LO:SIC:v:t=custos a	!
!	!	!	!	!	!	!	!	!LO:TX:t=P:problem:kreska pseudotaktowa	!
1G	.	1Gyy	.	2c]yy	.	1gyy	et	1ddyy	.
.	.	.	.	2B\yy	-ri-	.	.	.	.
!	!	!	!	!	!	!	!	!LO:LB:g=original	!
=81-	=81-	=81-	=81-	=81-	=81-	=81-	=81-	=81-	=81-
!	!	!	!	!	!	!LO:TX:t=P:problem:kreska pseudotaktowa	!	!	!
1A	.	1Ayy	.	1cyy	-ta-	1eyy	Ve-	2a\yy	.
*Xlig	*	*Xlig	*	*	*	*	*	*	*
.	.	.	.	.	.	.	.	1ccyy	.
*lig	*	*ligy	*	*	*	*	*	*	*
1G	.	1Gyy	.	1dyy	.	1gyy	.	.	.
!	!	!	!	!	!	!	!	!LO:TX:t=P:problem:kreska pseudotaktowa	!
.	.	.	.	.	.	.	.	2b\yy	.
=82-	=82-	=82-	=82-	=82-	=82-	=82-	=82-	=82-	=82-
!LO:TX:t=P:problem:kreska pseudotaktowa	!	!LO:TX:t=P:problem:kreska pseudotaktowa	!	!LO:TX:t=P:problem:kreska pseudotaktowa	!	!	!	!LO:TX:t=P:problem:kreska pseudotaktowa	!
1A	.	1Ayy	.	1cyy	.	1eyy	-ri-	1ayy	.
*Xlig	*	*Xlig	*	*2\left	*	*	*	*	*
!	!	!	!	!LO:TX:t=P:problem:skreślony fragment	!	!	!	!	!
!	!	!	!	!LO:LB:g=original	!	!	!	!	!
2G\	.	2G\yy	.	2B\yy	.	2d\yy	-ta-	2g\yy	.
*	*	*	*	*2\right	*	*	*	*	*
!	!	!	!	!LO:TX:t=P:problem:kreska pseudotaktowa:między nutą a kropką	!	!	!	!	!
1F#X\	.	1F#X\yy	.	[y<2c\yy	.	1f#X\yy	.	1a\yy	.
=83-	=83-	=83-	=83-	=83-	=83-	=83-	=83-	=83-	=83-
!	!	!	!	!LO:N:xstem:cue	!	!	!	!	!
.	.	.	.	4c]yy	.	.	.	.	.
.	.	.	.	4B\yy	.	.	.	.	.
!LO:TX:t=P:problem:kreska pseudotaktowa	!	!LO:TX:t=P:problem:kreska pseudotaktowa	!	!	!	!	!	!	!
2G\	.	2G\yy	.	4A/yy	.	4e\yy	.	1gyy	.
!	!	!	!	!	!	!LO:TX:t=P:problem:kreska pseudotaktowa	!	!	!
.	.	.	.	4G/yy	.	4d\yy	.	.	.
1D	.	1Dyy	.	1Ayy	.	1dyy	.	.	.
.	.	.	.	.	.	.	.	2f#X/yy	.
=84-	=84-	=84-	=84-	=84-	=84-	=84-	=84-	=84-	=84-
0GGl;	-tis.	0GGl;yy	-tis.	0Bl;,<yy	-tis.	0dl;yy	-tis.	0gl;yy	-tis.
==	==	==	==	==	==	==	==	==	==
*-	*-	*-	*-	*-	*-	*-	*-	*-	*-
!!!system-decoration: [g1]s5
!!!RDF**kern: > = above
!!!RDF**kern: < = below
!!!RDF**kern: l = terminal long
!!!RDF**kern: | = vertical stroke
!!!ENC: Andrzej Kubiczek
!!!END: 2021-04-08
!!!ENC: Anastazja Marusiak
!!!END: 2021-03-12
